src/assets/icons/real-estate/desk.svg

<svg width="48" height="48" viewBox="0 0 48 48" fill="none" xmlns="http://www.w3.org/2000/svg">
<rect width="48" height="48" fill="white"/>
<path fill-rule="evenodd" clip-rule="evenodd" d="M30 37.9998H38V24.9999H30V37.9998ZM12 25.9999H28V24.9999H12V25.9999ZM16 17.9999H28V9.99999H16V17.9999ZM11.0226 37.9996C11.0784 38.001 11.134 38.0074 11.1887 38.019C11.2597 38.03 11.3187 38.05 11.3797 38.08C11.4387 38.1 11.4997 38.13 11.5597 38.17C11.6087 38.2 11.6597 38.25 11.7097 38.29C11.7997 38.39 11.8697 38.49 11.9197 38.62C11.9697 38.74 11.9997 38.87 11.9997 39C11.9997 39.13 11.9697 39.26 11.9197 39.38C11.8697 39.5 11.7997 39.609 11.7097 39.71C11.5197 39.899 11.2697 40 10.9997 40C10.8697 40 10.7397 39.97 10.6197 39.92C10.4897 39.87 10.3897 39.8 10.2897 39.71C10.1997 39.609 10.1297 39.5 10.0797 39.38C10.0197 39.26 9.9997 39.13 9.9997 39C9.9997 38.87 10.0197 38.74 10.0797 38.62C10.1297 38.49 10.1997 38.39 10.2897 38.29C10.3897 38.2 10.4897 38.13 10.6197 38.08C10.7333 38.0295 10.8549 38.0025 10.9767 37.9995C10.4345 37.9872 10 37.545 10 36.9998V24.9999H9C8.447 24.9999 8 24.5529 8 23.9999C8 23.4469 8.447 22.9999 9 22.9999H18C18 22.4469 18.447 21.9999 19 21.9999H21V19.9999H15C14.447 19.9999 14 19.5529 14 18.9999V8.99999C14 8.447 14.447 8 15 8H29C29.553 8 30 8.447 30 8.99999V18.9999C30 19.5529 29.553 19.9999 29 19.9999H23V21.9999H25C25.553 21.9999 26 22.4469 26 22.9999H29H32C32 22.4469 32.447 21.9999 33 21.9999H34C34.553 21.9999 35 22.4469 35 22.9999H39C39.553 22.9999 40 23.4469 40 23.9999V38.9998C40 39.5528 39.553 39.9998 39 39.9998H29C28.447 39.9998 28 39.5528 28 38.9998V27.9999H12V36.9998C12 37.5453 11.5651 37.9876 11.0226 37.9996ZM31.9998 28H35.9998C36.5528 28 36.9998 27.553 36.9998 27C36.9998 26.447 36.5528 26 35.9998 26H31.9998C31.4468 26 30.9998 26.447 30.9998 27C30.9998 27.553 31.4468 28 31.9998 28ZM31.9998 32H35.9998C36.5528 32 36.9998 31.553 36.9998 31C36.9998 30.447 36.5528 30 35.9998 30H31.9998C31.4468 30 30.9998 30.447 30.9998 31C30.9998 31.553 31.4468 32 31.9998 32ZM31.9998 35.9999H35.9998C36.5528 35.9999 36.9998 35.5529 36.9998 34.9999C36.9998 34.4469 36.5528 33.9999 35.9998 33.9999H31.9998C31.4468 33.9999 30.9998 34.4469 30.9998 34.9999C30.9998 35.5529 31.4468 35.9999 31.9998 35.9999ZM11.0226 37.9996C11.0073 37.9992 10.992 37.9992 10.9767 37.9995C10.9844 37.9997 10.9922 37.9998 11 37.9998C11.0076 37.9998 11.0151 37.9997 11.0226 37.9996Z" fill="#253238"/>
</svg>

<svg width="48" height="48" viewBox="0 0 48 48" fill="none" xmlns="http://www.w3.org/2000/svg"><path fill-rule="evenodd" clip-rule="evenodd" d="M30 38h8V25h-8v13zM12 26h16v-1H12v1zm4-8h12v-8H16v8zm-4.977 20a.91.91 0 01.166.019c.07.011.13.031.19.061.06.02.12.05.18.09.05.03.1.08.15.12.09.1.16.2.21.33.05.12.08.25.08.38s-.03.26-.08.38-.12.229-.21.33a.994.994 0 01-1.09.21c-.13-.05-.23-.12-.33-.21-.09-.101-.16-.21-.21-.33A.838.838 0 0110 39c0-.13.02-.26.08-.38.05-.13.12-.23.21-.33.1-.09.2-.16.33-.21a.936.936 0 01.358-.08.999.999 0 01-.977-1V25H9a1 1 0 110-2h9a1 1 0 011-1h2v-2h-6a1 1 0 01-1-1V9a1 1 0 011-1h14a1 1 0 011 1v10a1 1 0 01-1 1h-6v2h2a1 1 0 011 1h6a1 1 0 011-1h1a1 1 0 011 1h4a1 1 0 011 1v15a1 1 0 01-1 1H29a1 1 0 01-1-1V28H12v9a1 1 0 01-.977 1zM32 28h4a1 1 0 100-2h-4a1 1 0 100 2zm0 4h4a1 1 0 100-2h-4a1 1 0 100 2zm0 4h4a1 1 0 100-2h-4a1 1 0 100 2zm-20.977 2A1.003 1.003 0 0011 38h.023z" fill="#253238"/></svg>
